Adwaita++-Dark/actions/22/system-run.svg

<svg height="22" viewBox="0 0 22 22" width="22" xmlns="http://www.w3.org/2000/svg">
  <path d="m4.1894531 1.0664062-1.2988281.75.3378906.7167969a2.3571 2.3571 0 0 0 -.3964844.6894531l-.7910156.0664063v1.5l.7910156.0664063a2.3571 2.3571 0 0 0 .1679688.3632812 2.3571 2.3571 0 0 0 .2285156.328125l-.3378906.7148438 1.2988281.7519531.453125-.6523438a2.3571 2.3571 0 0 0 .7949219-.0019531l.453125.6542969 1.2988281-.75-.3378906-.71875a2.3571 2.3571 0 0 0 .3984375-.6894531l.7910156-.0664063v-1.5l-.7910156-.0644531a2.3571 2.3571 0 0 0 -.1679688-.3632813 2.3571 2.3571 0 0 0 -.2304687-.328125l.3378906-.7167969-1.2988281-.75-.4511719.6503907a2.3571 2.3571 0 0 0 -.796875.0019531zm.8300781 2.1171876a.85714.85714 0 0 1 .7636719.4277343.85714.85714 0 0 1 -.3144531 1.1699219.85714.85714 0 0 1 -1.1699219-.3125.85714.85714 0 0 1 .3125-1.171875.85714.85714 0 0 1 .4082031-.1132812zm2.7402344 2.8085937-.109375 1.3183594a3.9286 3.9286 0 0 0 -1.1484375.6640625l-1.1972656-.5644532-1.25 2.1660157 1.0859375.7539061a3.9286 3.9286 0 0 0 -.0585938.66211 3.9286 3.9286 0 0 0 .0566407.666015l-1.0839844.751953 1.25 2.166016 1.1933594-.5625a3.9286 3.9286 0 0 0 1.1523437.660156l.109375 1.31836h2.5000004l.109375-1.316407a3.9286 3.9286 0 0 0 1.148437-.664062l1.197266.564453 1.25-2.166016-1.085938-.753906a3.9286 3.9286 0 0 0 .060547-.664062 3.9286 3.9286 0 0 0 -.058594-.664063l1.083985-.7519531-1.25-2.1660157-1.19336.5625a3.9286 3.9286 0 0 0 -1.15039-.6601562l-.111328-1.3203125zm1.25 3.5722656a1.4286 1.4286 0 0 1 1.4296874 1.4277349 1.4286 1.4286 0 0 1 -1.4296874 1.429687 1.4286 1.4286 0 0 1 -1.4277344-1.429687 1.4286 1.4286 0 0 1 1.4277344-1.4277349z" fill="#e6ddff" transform="translate(3 3)"/>
</svg>

<svg xmlns="http://www.w3.org/2000/svg" width="22" height="22" viewBox="0 0 22 22">
 <defs>
  <style id="current-color-scheme" type="text/css">
   .ColorScheme-Text { color:#E6DDFF; } .ColorScheme-Highlight { color:#4285f4; }
  </style>
 </defs>
 <path style="fill:currentColor" class="ColorScheme-Text" d="M 4.1894531 1.0664062 L 2.890625 1.8164062 L 3.2285156 2.5332031 A 2.3571 2.3571 0 0 0 2.8320312 3.2226562 L 2.0410156 3.2890625 L 2.0410156 4.7890625 L 2.8320312 4.8554688 A 2.3571 2.3571 0 0 0 3 5.21875 A 2.3571 2.3571 0 0 0 3.2285156 5.546875 L 2.890625 6.2617188 L 4.1894531 7.0136719 L 4.6425781 6.3613281 A 2.3571 2.3571 0 0 0 5.4375 6.359375 L 5.890625 7.0136719 L 7.1894531 6.2636719 L 6.8515625 5.5449219 A 2.3571 2.3571 0 0 0 7.25 4.8554688 L 8.0410156 4.7890625 L 8.0410156 3.2890625 L 7.25 3.2246094 A 2.3571 2.3571 0 0 0 7.0820312 2.8613281 A 2.3571 2.3571 0 0 0 6.8515625 2.5332031 L 7.1894531 1.8164062 L 5.890625 1.0664062 L 5.4394531 1.7167969 A 2.3571 2.3571 0 0 0 4.6425781 1.71875 L 4.1894531 1.0664062 z M 5.0195312 3.1835938 A 0.85714 0.85714 0 0 1 5.7832031 3.6113281 A 0.85714 0.85714 0 0 1 5.46875 4.78125 A 0.85714 0.85714 0 0 1 4.2988281 4.46875 A 0.85714 0.85714 0 0 1 4.6113281 3.296875 A 0.85714 0.85714 0 0 1 5.0195312 3.1835938 z M 7.7597656 5.9921875 L 7.6503906 7.3105469 A 3.9286 3.9286 0 0 0 6.5019531 7.9746094 L 5.3046875 7.4101562 L 4.0546875 9.5761719 L 5.140625 10.330078 A 3.9286 3.9286 0 0 0 5.0820312 10.992188 A 3.9286 3.9286 0 0 0 5.1386719 11.658203 L 4.0546875 12.410156 L 5.3046875 14.576172 L 6.4980469 14.013672 A 3.9286 3.9286 0 0 0 7.6503906 14.673828 L 7.7597656 15.992188 L 10.259766 15.992188 L 10.369141 14.675781 A 3.9286 3.9286 0 0 0 11.517578 14.011719 L 12.714844 14.576172 L 13.964844 12.410156 L 12.878906 11.65625 A 3.9286 3.9286 0 0 0 12.939453 10.992188 A 3.9286 3.9286 0 0 0 12.880859 10.328125 L 13.964844 9.5761719 L 12.714844 7.4101562 L 11.521484 7.9726562 A 3.9286 3.9286 0 0 0 10.371094 7.3125 L 10.259766 5.9921875 L 7.7597656 5.9921875 z M 9.0097656 9.5644531 A 1.4286 1.4286 0 0 1 10.439453 10.992188 A 1.4286 1.4286 0 0 1 9.0097656 12.421875 A 1.4286 1.4286 0 0 1 7.5820312 10.992188 A 1.4286 1.4286 0 0 1 9.0097656 9.5644531 z" transform="translate(3 3)"/>
</svg>
